app/images/icons/navi_national.svg

<?xml version="1.0" encoding="UTF-8" standalone="no"?>
<!-- Generator: Adobe Illustrator 18.0.0, SVG Export Plug-In . SVG Version: 6.00 Build 0)  -->

<svg
   xmlns:dc="http://purl.org/dc/elements/1.1/"
   xmlns:cc="http://creativecommons.org/ns#"
   xmlns:rdf="http://www.w3.org/1999/02/22-rdf-syntax-ns#"
   xmlns:svg="http://www.w3.org/2000/svg"
   xmlns="http://www.w3.org/2000/svg"
   xmlns:sodipodi="http://sodipodi.sourceforge.net/DTD/sodipodi-0.dtd"
   xmlns:inkscape="http://www.inkscape.org/namespaces/inkscape"
   version="1.1"
   id="Layer_1"
   x="0px"
   y="0px"
   viewBox="0 0 64 64"
   enable-background="new 0 0 792 612"
   xml:space="preserve"
   inkscape:version="0.48.5 r10040"
   width="100%"
   height="100%"
   sodipodi:docname="navi_national.svg"><metadata
     id="metadata3144"><rdf:RDF><cc:Work
         rdf:about=""><dc:format>image/svg+xml</dc:format><dc:type
           rdf:resource="http://purl.org/dc/dcmitype/StillImage" /></cc:Work></rdf:RDF></metadata><defs
     id="defs3142" /><sodipodi:namedview
     pagecolor="#ffffff"
     bordercolor="#666666"
     borderopacity="1"
     objecttolerance="10"
     gridtolerance="10"
     guidetolerance="10"
     inkscape:pageopacity="0"
     inkscape:pageshadow="2"
     inkscape:window-width="640"
     inkscape:window-height="480"
     id="namedview3140"
     showgrid="false"
     fit-margin-top="0"
     fit-margin-left="0"
     fit-margin-right="0"
     fit-margin-bottom="0"
     inkscape:zoom="0.38562092"
     inkscape:cx="32.100006"
     inkscape:cy="31.600006"
     inkscape:window-x="59"
     inkscape:window-y="0"
     inkscape:window-maximized="0"
     inkscape:current-layer="Layer_1" /><circle
     cx="395.89999"
     cy="305.60001"
     r="32"
     id="circle3130"
     sodipodi:cx="395.89999"
     sodipodi:cy="305.60001"
     sodipodi:rx="32"
     sodipodi:ry="32"
     style="fill:#d8d8d7"
     transform="translate(-363.89999,-273.60001)" /><g
     id="g3132"
     transform="translate(-363.89999,-273.60001)"><g
       id="g3134"><path
         d="m 378.1,289.1 v 30.1 c 14.3,4.9 27.7,-4.9 42,0 v -30.1 c -14.3,-4.9 -27.7,5 -42,0 l 0,0 z m 15.6,9 c 0.1,-0.4 0.2,-0.7 0.3,-1.1 0.1,0.4 0.2,0.6 0.3,1 0.4,-0.1 0.6,-0.1 1.1,-0.2 -0.4,0.3 -0.5,0.5 -0.9,0.8 0.1,0.4 0.2,0.6 0.3,1 -0.3,-0.2 -0.5,-0.3 -0.9,-0.5 -0.4,0.3 -0.5,0.5 -0.9,0.8 0.1,-0.4 0.2,-0.7 0.3,-1.1 -0.4,-0.2 -0.5,-0.3 -0.9,-0.5 0.6,-0.1 0.8,-0.1 1.3,-0.2 l 0,0 z m -3.6,-2.9 c 0.1,-0.4 0.2,-0.6 0.3,-1.1 0.1,0.4 0.2,0.6 0.3,1 0.4,-0.1 0.6,-0.1 1.1,-0.2 -0.4,0.3 -0.5,0.5 -0.9,0.8 0.1,0.4 0.2,0.6 0.3,1 -0.4,-0.2 -0.5,-0.3 -0.9,-0.5 -0.3,0.3 -0.5,0.4 -0.9,0.7 0.1,-0.4 0.2,-0.6 0.3,-1.1 -0.4,-0.2 -0.5,-0.3 -0.9,-0.6 0.7,0.1 0.9,0.1 1.3,0 l 0,0 z m 0,6.6 c 0.1,-0.4 0.2,-0.6 0.3,-1.1 0.1,0.4 0.2,0.6 0.3,1 0.4,-0.1 0.6,-0.1 1.1,-0.1 -0.4,0.3 -0.5,0.5 -0.9,0.8 0.1,0.4 0.2,0.6 0.3,1 -0.4,-0.2 -0.5,-0.3 -0.9,-0.5 -0.3,0.3 -0.5,0.4 -0.9,0.7 0.1,-0.4 0.2,-0.6 0.3,-1.1 -0.4,-0.2 -0.5,-0.3 -0.9,-0.6 0.7,0 0.9,0 1.3,-0.1 l 0,0 z m -3.1,-3 c 0.1,-0.4 0.2,-0.6 0.3,-1 0.1,0.4 0.2,0.6 0.3,1 0.4,0 0.6,0 1.1,-0.1 -0.4,0.3 -0.5,0.4 -0.9,0.7 0.1,0.4 0.2,0.6 0.3,1 -0.4,-0.2 -0.5,-0.4 -0.9,-0.6 -0.4,0.3 -0.5,0.4 -0.9,0.6 0.1,-0.4 0.2,-0.6 0.3,-1 -0.4,-0.3 -0.5,-0.4 -0.9,-0.7 0.7,0.1 0.9,0.1 1.3,0.1 l 0,0 z m -3.8,-3.7 c 0.1,-0.4 0.2,-0.6 0.3,-1 0.1,0.4 0.2,0.6 0.3,1.1 0.4,0.1 0.6,0.1 1.1,0.1 -0.4,0.2 -0.5,0.3 -0.9,0.5 0.1,0.4 0.2,0.6 0.3,1.1 -0.4,-0.3 -0.5,-0.4 -0.9,-0.8 -0.4,0.2 -0.5,0.3 -0.9,0.5 0.1,-0.4 0.2,-0.6 0.3,-1 -0.3,-0.3 -0.5,-0.5 -0.9,-0.8 0.6,0.2 0.8,0.2 1.3,0.3 l 0,0 z m 0,6.6 c 0.1,-0.4 0.2,-0.6 0.3,-1 0.1,0.4 0.2,0.6 0.3,1.1 0.4,0.1 0.6,0.1 1.1,0.1 -0.4,0.2 -0.5,0.3 -0.9,0.5 0.1,0.4 0.2,0.6 0.3,1.1 -0.4,-0.3 -0.5,-0.4 -0.9,-0.8 -0.4,0.2 -0.5,0.3 -0.9,0.5 0.1,-0.4 0.2,-0.6 0.3,-1 -0.3,-0.3 -0.5,-0.5 -0.9,-0.8 0.6,0.2 0.8,0.2 1.3,0.3 l 0,0 z m 34.7,14.4 c -12.9,-2.8 -24.7,4.6 -37.6,1.8 v -2.4 c 12.9,2.8 24.7,-4.6 37.6,-1.8 v 2.4 z m 0,-4.6 c -12.9,-2.8 -24.7,4.6 -37.6,1.8 V 311 c 12.9,2.8 24.7,-4.6 37.6,-1.8 v 2.3 z m 0,-4.5 c -12.9,-2.8 -24.7,4.6 -37.6,1.8 v -2.3 c 12.9,2.8 24.7,-4.6 37.6,-1.8 v 2.3 z m 0,-4.5 c -6.8,-1.6 -12.5,-0.6 -19.2,1 V 301 c 6.7,-1.5 12.4,-2.5 19.2,-1 v 2.5 z m 0,-4.8 c -6.8,-1.6 -12.5,-0.6 -19.2,1 v -2.3 c 6.7,-1.5 12.4,-2.5 19.2,-1 v 2.3 z m 0,-4.5 c -6.8,-1.6 -12.5,-0.6 -19.2,1 v -2.8 c 6.7,-1.5 12.4,-2.5 19.2,-1 v 2.8 z m 0,0"
         id="path3136"
         inkscape:connector-curvature="0"
         style="fill:#a4a4a4" /></g><path
       d="m 375.6,284.9 h -1.4 c -1.3,0 -2.3,1 -2.3,2.3 0,0.9 0.5,1.6 1.2,2 v 34.2 l 3.6,4 v -38.2 c 0.7,-0.4 1.1,-1.1 1.1,-2 0,-1.3 -1,-2.3 -2.2,-2.3 l 0,0 z m 0,0"
       id="path3138"
       inkscape:connector-curvature="0"
       style="fill:#a4a4a4" /></g></svg>

<?xml version="1.0" encoding="utf-8"?>
<!-- Generator: Adobe Illustrator 18.0.0, SVG Export Plug-In . SVG Version: 6.00 Build 0)  -->
<!DOCTYPE svg PUBLIC "-//W3C//DTD SVG 1.1//EN" "http://www.w3.org/Graphics/SVG/1.1/DTD/svg11.dtd">
<svg version="1.1" id="Layer_1" xmlns="http://www.w3.org/2000/svg" xmlns:xlink="http://www.w3.org/1999/xlink" x="0px" y="0px"
	 viewBox="0 0 792 612" enable-background="new 0 0 792 612" xml:space="preserve">
<circle fill="#D8D8D7" cx="395.9" cy="305.6" r="32"/>
<g>
	<g>
		<path fill="#A4A4A4" d="M378.1,289.1v30.1c14.3,4.9,27.7-4.9,42,0v-30.1C405.8,284.2,392.4,294.1,378.1,289.1L378.1,289.1z
			 M393.7,298.1c0.1-0.4,0.2-0.7,0.3-1.1c0.1,0.4,0.2,0.6,0.3,1c0.4-0.1,0.6-0.1,1.1-0.2c-0.4,0.3-0.5,0.5-0.9,0.8
			c0.1,0.4,0.2,0.6,0.3,1c-0.3-0.2-0.5-0.3-0.9-0.5c-0.4,0.3-0.5,0.5-0.9,0.8c0.1-0.4,0.2-0.7,0.3-1.1c-0.4-0.2-0.5-0.3-0.9-0.5
			C393,298.2,393.2,298.2,393.7,298.1L393.7,298.1z M390.1,295.2c0.1-0.4,0.2-0.6,0.3-1.1c0.1,0.4,0.2,0.6,0.3,1
			c0.4-0.1,0.6-0.1,1.1-0.2c-0.4,0.3-0.5,0.5-0.9,0.8c0.1,0.4,0.2,0.6,0.3,1c-0.4-0.2-0.5-0.3-0.9-0.5c-0.3,0.3-0.5,0.4-0.9,0.7
			c0.1-0.4,0.2-0.6,0.3-1.1c-0.4-0.2-0.5-0.3-0.9-0.6C389.5,295.3,389.7,295.3,390.1,295.2L390.1,295.2z M390.1,301.8
			c0.1-0.4,0.2-0.6,0.3-1.1c0.1,0.4,0.2,0.6,0.3,1c0.4-0.1,0.6-0.1,1.1-0.1c-0.4,0.3-0.5,0.5-0.9,0.8c0.1,0.4,0.2,0.6,0.3,1
			c-0.4-0.2-0.5-0.3-0.9-0.5c-0.3,0.3-0.5,0.4-0.9,0.7c0.1-0.4,0.2-0.6,0.3-1.1c-0.4-0.2-0.5-0.3-0.9-0.6
			C389.5,301.9,389.7,301.9,390.1,301.8L390.1,301.8z M387,298.8c0.1-0.4,0.2-0.6,0.3-1c0.1,0.4,0.2,0.6,0.3,1c0.4,0,0.6,0,1.1-0.1
			c-0.4,0.3-0.5,0.4-0.9,0.7c0.1,0.4,0.2,0.6,0.3,1c-0.4-0.2-0.5-0.4-0.9-0.6c-0.4,0.3-0.5,0.4-0.9,0.6c0.1-0.4,0.2-0.6,0.3-1
			c-0.4-0.3-0.5-0.4-0.9-0.7C386.4,298.8,386.6,298.8,387,298.8L387,298.8z M383.2,295.1c0.1-0.4,0.2-0.6,0.3-1
			c0.1,0.4,0.2,0.6,0.3,1.1c0.4,0.1,0.6,0.1,1.1,0.1c-0.4,0.2-0.5,0.3-0.9,0.5c0.1,0.4,0.2,0.6,0.3,1.1c-0.4-0.3-0.5-0.4-0.9-0.8
			c-0.4,0.2-0.5,0.3-0.9,0.5c0.1-0.4,0.2-0.6,0.3-1c-0.3-0.3-0.5-0.5-0.9-0.8C382.5,295,382.7,295,383.2,295.1L383.2,295.1z
			 M383.2,301.7c0.1-0.4,0.2-0.6,0.3-1c0.1,0.4,0.2,0.6,0.3,1.1c0.4,0.1,0.6,0.1,1.1,0.1c-0.4,0.2-0.5,0.3-0.9,0.5
			c0.1,0.4,0.2,0.6,0.3,1.1c-0.4-0.3-0.5-0.4-0.9-0.8c-0.4,0.2-0.5,0.3-0.9,0.5c0.1-0.4,0.2-0.6,0.3-1c-0.3-0.3-0.5-0.5-0.9-0.8
			C382.5,301.6,382.7,301.6,383.2,301.7L383.2,301.7z M417.9,316.1c-12.9-2.8-24.7,4.6-37.6,1.8v-2.4c12.9,2.8,24.7-4.6,37.6-1.8
			V316.1z M417.9,311.5c-12.9-2.8-24.7,4.6-37.6,1.8V311c12.9,2.8,24.7-4.6,37.6-1.8V311.5z M417.9,307c-12.9-2.8-24.7,4.6-37.6,1.8
			v-2.3c12.9,2.8,24.7-4.6,37.6-1.8V307z M417.9,302.5c-6.8-1.6-12.5-0.6-19.2,1v-2.5c6.7-1.5,12.4-2.5,19.2-1V302.5z M417.9,297.7
			c-6.8-1.6-12.5-0.6-19.2,1v-2.3c6.7-1.5,12.4-2.5,19.2-1V297.7z M417.9,293.2c-6.8-1.6-12.5-0.6-19.2,1v-2.8
			c6.7-1.5,12.4-2.5,19.2-1V293.2z M417.9,293.2"/>
	</g>
	<path fill="#A4A4A4" d="M375.6,284.9h-1.4c-1.3,0-2.3,1-2.3,2.3c0,0.9,0.5,1.6,1.2,2v34.2l3.6,4v-38.2c0.7-0.4,1.1-1.1,1.1-2
		C377.8,285.9,376.8,284.9,375.6,284.9L375.6,284.9z M375.6,284.9"/>
</g>
</svg>
